X:31
T:Lenox Love
T:Colonel Montgomery's Strathspey
S:Petrie's Second Collection of Strathspey Reels and Country Dances &c.
Z:Steve Wyrick , 6/5/04
N:Petrie's Second Collection, page 11
% Gore's Index gives earliest publication as Joshua Campbell's 
% "Coll. Of Newest & Best Reels & Minuets..." Glasgow 1788
L:1/8
M:C
R:Strathspey
K:F
(f|f)<FF>G A>GF<A|G<GA>c d>cd<e|f>dc<f      A>GF<A |G<AF<C  D2D:|
 f|f>cf>g  a>gf<a|g>fg>a g>fc<g|f<cf>g ({fg}a)>gf<a|c<cc>a Tg2f2|
   f<cf>g  a>gf<a|g>fg<a g>fd>f|c>df>g      a>gf<a |c<cb>a Tg2f|]
